code/images/icons/top_info.svg

<svg width="20.001" xmlns="http://www.w3.org/2000/svg" height="20.001" viewBox="0 0 20.001 20.001" xmlns:xlink="http://www.w3.org/1999/xlink" enable-background="new 0 0 20.001 20.001">
<path fill="none" d="m10,0c-5.522,0-10,4.478-10,10 0,5.523 4.478,10.001 10,10.001 5.524,0 10.001-4.478 10.001-10.001 0-5.522-4.477-10-10.001-10zm1.569,13.68c-.756,1.133-1.524,2.007-2.815,2.007-.882-.144-1.244-.776-1.053-1.419l1.662-5.504c.04-.135-.027-.279-.15-.322s-.363,.116-.57,.343l-1.005,1.209c-.028-.203-.003-.539-.003-.674 .755-1.132 1.994-2.026 2.835-2.026 .801,.082 1.178,.72 1.039,1.422l-1.674,5.53c-.022,.126 .044,.252 .157,.292 .123,.043 .381-.116 .59-.345l1.005-1.207c.027,.202-.018,.558-.018,.694zm-.224-7.188c-.636,0-1.151-.463-1.151-1.145 0-.683 .516-1.145 1.151-1.145 .635,0 1.15,.462 1.15,1.145 0,.682-.516,1.145-1.15,1.145z"/>
</svg>

<?xml version="1.0" encoding="utf-8"?>
<!-- Generator: Adobe Illustrator 13.0.0, SVG Export Plug-In . SVG Version: 6.00 Build 14948)  -->
<!DOCTYPE svg PUBLIC "-//W3C//DTD SVG 1.1//EN" "http://www.w3.org/Graphics/SVG/1.1/DTD/svg11.dtd">
<svg version="1.1" id="Layer_1" xmlns="http://www.w3.org/2000/svg" xmlns:xlink="http://www.w3.org/1999/xlink" x="0px" y="0px"
	 width="20px" height="20px" viewBox="0 0 20 20" enable-background="new 0 0 20 20" xml:space="preserve">
<path fill="#FFFFFF" d="M10,0C4.478,0,0,4.478,0,10c0,5.523,4.478,10,10,10c5.524,0,10-4.478,10-10C20,4.478,15.524,0,10,0z
	 M11.569,13.68c-0.756,1.133-1.524,2.007-2.815,2.007c-0.882-0.144-1.244-0.776-1.053-1.419l1.662-5.504
	c0.04-0.135-0.027-0.279-0.15-0.322S8.85,8.558,8.643,8.785L7.638,9.994C7.61,9.791,7.635,9.455,7.635,9.32
	C8.39,8.188,9.629,7.294,10.47,7.294c0.801,0.082,1.178,0.72,1.038,1.422l-1.673,5.531c-0.022,0.125,0.044,0.252,0.157,0.291
	c0.123,0.043,0.381-0.115,0.59-0.345l1.004-1.207C11.614,13.188,11.569,13.543,11.569,13.68z M11.345,6.492
	c-0.636,0-1.151-0.463-1.151-1.145c0-0.683,0.516-1.145,1.151-1.145c0.635,0,1.149,0.462,1.149,1.145
	C12.495,6.029,11.979,6.492,11.345,6.492z"/>
</svg>
